X: 27256
T: Miss Spence's
R: reel
M: 4/4
K: Dmajor
|:A|d2 AG F2 DF|E =C2 E c3 A|B2 AG F2 D2|D d2 c d3:|
|:e|fafd fafd|egec egec|fafd fafd|egec d3:|

